!!!OTL: 712. Als der Grossvater die Grossmutter nahm.
!!!COM: Volksweise
!!!ODT: 18 Jahrh.
!!!ARE: Europa, Mitteleuropa, Deutschland
!!!SCT: B0712
!!!TXL: @@DE
!!!YEM: Copyright 1995, estate of Helmut Schaffrath.
**kern	**text
*ICvox	*
*Ivox	*
*clefG2	*
*M3/4	*
*k[f#]	*
*G:	*
=1	=1
!LO:TX:a:t=Langſam.	!
{4.g	Als
8g	der
4g	Groß-
=2	=2
4.g	-va-
8a	-ter
4b	die
=3	=3
4b	Groß-
4a	-mut-
4a	-ter
=4	=4
2a}	nahm,
{4a	da
=5	=5
4.b	wuß-
8cc	-te
4dd	man
=6	=6
4.dd	nichts
8cc	von
4b	Mam-
=7	=7
4b	-ſell
4a	und
4a	Ma-
=8	=8
2a}	-dam.
{4d	Die
=9	=9
4.g	ʒüch-
8g	-ti-
4g	-ge
=10	=10
4.g	Jungfrau,
8a	.
4b	das
=11	=11
4b	häus-
4a	-li-
4a	-che
=12	=12
2a}	Weib,
{4cc	ſie
=13	=13
4.b	wa-
8cc	-ren
4dd	echt
=14	=14
4cc	deutſch
4b	noch
4a	an
=15	=15
4a	See-
4g	-le
4g	und
=16	=16
2.g}	Leib.
==	==
!!!AGN: Scherz - Lied
!!!GTL: Scherzlieder und Gemischtes
!!!ONB: ESAC (Essen Associative Code) Database: BOEHME
!!!AMT: simple triple
!!!AIN: vox
!!!EED: Helmut Schaffrath
!!!EEV: 1.0
!!Alte Volksweiſe, 18. Jahrh.
!!@@COMMENT:"Gedicht v. Aug. Langbein 1812. Ʒuerſt gedr. in Becker's "Taſchenbuch ʒum geſelligen
!!Vergnügen 1813 S. 332. Jn Langbein's Liederkranʒ. Betlin 1820 S. 152 mit der Ueberſchrift:
!!"Das Großvaterlied nach der bekannten Tanʒweiſe". - Ein ähnliches Lied giebts ſchon d. Klamer
!!Schmidt 1794, gedr. im Berliner Muſenalm. 1802 S. 97. Anfang: "Und als der Großvater die
!!Großmutter nahm, da war der Großvater ein Bräutigam" rc."
!!@@END:
!!!Text: A. Langbein
!!!URL-scan: https://archive.org/details/BoehmeVtLieder1895/page/n561/mode/2up
!!!ENC: Anna Maria Matuszewska
!!!EEV: 2024/17/07
*-	*-
